X: 010087
T: Ashmolean House
C: Tommy Gunn
S: J. O'Sullivan / Kelly Bros.
Z: B.Black
R: reel
M: 4/4
L: 1/8
K: D
AF F2 EDB,A,|D2 FD FA A2|defd efdB | AFDE FE E2 |
AF F2 EDB,A,|D2 FD FAAB|ABde dBAF | A,CEG FD D2 :|
defg a3 b | afdf eB (3BAB | defg a3 b |afdf e3 f |
fd (3ddd Ad (3ddd |edBd egfe|dBAF A3 F|A,CEG FD D2 :|
